X:1
T:Ring the Bells of Heaven
T:Ring the Bells of Heaven
T:George Frederick Root
T:William Orcutt Cushing, 1866
T:Public Domain Courtesy of the Cyber Hymnal™
T:Public Domain Courtesy of the Cyber Hymnal™
C:George Frederick Root
Z:Public Domain
Z:Courtesy of the Cyber Hymnal™
%%score ( 1 2 ) ( 3 4 )
L:1/8
Q:1/4=100
M:4/4
K:Bb
V:1 treble 
V:2 treble 
V:3 bass 
V:4 bass 
V:1
 [DF]>[DF] [EG]>[DF] [Fd]2 [DB]2 | [Ec]>[EB] [EG]>[FA] [GB]4 | %2
w: 1.~Ring the bells of Hea- ven!|There is joy to- day,|
w: 2.~Ring the bells of Hea- ven!|There is joy to- day,|
w: 3.~Ring the bells of Hea- ven!|Spread the feast to- day!|
 [FA]>[FB] [Fc]>[FB] [Fd]>[Fc] [Fe]>[EA] | [DB]8 | [DF]>[DF] [EG]>[DF] [Fd]2 [DB]2 | %5
w: For a soul, re- turn- ing from the|wild!|See, the Fa- ther meets him|
w: For the wand- erer now is re- con-|ciled;|Yes, a soul is res- cued|
w: An- gels, swell the glad tri- umph- ant|strain!|Tell the joy- ful tid- ings,|
 [Ec]>[EB] [EG]>[FA] [GB]4 | [FA]>[FB] [Fc]>[FB] [Fd]>[Fc] [Fe]>[EA] | [DB]8 || %8
w: out up- on the way,|Wel- com- ing His wear- y, wan- dering|child.|
w: from his sin- ful way,|And is born a- new a ran- somed|child.|
w: bear it far a- way!|For a pre- cious soul is born a-|gain.|
"^Refrain" [Fd]2 [Fd]2 [Ff]>[Fe] [Fc]>[EA] | [DB]2 [GB]2 [^Fd]4 | G2 G2 [=Ec]>[Ed] [Ec]>[EB] | %11
w: |||
w: Glor- y! Glor- y! How the|an- gels sing:|Glor- y! Glor- y! How the|
w: |||
 [FA]2 [=EG]2 F4 [DF]>[DF][EG]>[DF] [Fd]2 [DB]2 | [Ec]>[EB] [EG]>[FA] [GB]4 | %13
w: ||
w: loud harps ring! ’Tis the ran- somed ar- my,|like a might- y sea,|
w: ||
 [FA]>[FB] [Fc]>[FB] [Fd]>[Fc] [Fe]>[EA] | [DB]8 |] %15
w: ||
w: Peal- ing forth the ant- hem of the|free.|
w: ||
V:2
 x8 | x8 | x8 | x8 | x8 | x8 | x8 | x8 || x8 | x8 | G2 G2 x4 | x4 F4 x8 | x8 | x8 | x8 |] %15
V:3
 [B,,B,]>[B,,B,] [B,,B,]>[B,,B,] [B,,B,]2 [B,,B,]2 | [E,G,]>[E,G,] [E,B,]>[E,B,] [E,E]4 | %2
w: ~ ~ ~ ~ ~ ~|~ ~ ~ ~ ~|
 [F,C]>[F,B,] [F,A,]>F, F,>[F,A,] [F,C]>[F,C] | [B,,B,]8 | %4
w: ~ ~ ~ ~ ~ ~ ~ ~|~|
 [B,,B,]>[B,,B,] [B,,B,]>[B,,B,] [B,,B,]2 [B,,B,]2 | [E,G,]>[E,G,] [E,B,]>[E,B,] [E,E]4 | %6
w: ||
 [F,C]>[F,B,] [F,A,]>[F,G,] F,>[F,A,] [F,C]>[F,C] | [B,,B,]8 || B,2 B,2 [F,A,]>[F,C] [F,E]>[F,C] | %9
w: |||
 [G,B,]2 [G,D]2 [D,D]4 | [E,B,]2 [E,B,]2 [C,C]>[C,C] [C,C]>[C,C] | %11
w: ||
 [F,C]2 [C,B,]2 [F,A,]4 [B,,B,]>[B,,B,][B,,B,]>[B,,B,] [B,,B,]2 [B,,B,]2 | %12
w: |
 [E,G,]>[E,G,] [E,B,]>[E,B,] [E,E]4 | [F,C]>[F,B,] [F,A,]>[F,G,] F,>[F,A,] [F,C]>[F,C] | %14
w: ||
 [B,,B,]8 |] %15
w: |
V:4
 x8 | x8 | x7/2 F,/ F,3/2 x5/2 | x8 | x8 | x8 | x4 F,3/2 x5/2 | x8 || B,2 B,2 x4 | x8 | x8 | x16 | %12
 x8 | x4 F,3/2 x5/2 | x8 |] %15

